X: 272
T: Polonäs, sexdregasamlingen del 1 nr 158
B: Sexdregasamlingen del 1 nr 158
B: Jämför [[http://www.smus.se/earkiv/fmk/browselarge.php?lang=sw&katalogid=Ma+6&bildnr=00096|SMUS - katalog Ma6 bild 96]] efter [[Personer/Petter Dufva]]
B: Jämför [[http://www.smus.se/earkiv/fmk/browselarge.php?lang=sw&katalogid=M+189&bildnr=00015|SMUS - katalog M189 bild 15]] (no. 1) efter [[Personer/Anders Larsson i Backa]] ([[Platser/Östergötland]])
B: Jämför [[http://www.smus.se/earkiv/fmk/browselarge.php?lang=sw&katalogid=M+19&bildnr=00015|SMUS - katalog M19 bild 15]] (nr 43) efter [[Personer/Johan August Ericsson]] från [[Platser/Södermanland]]
B: Jämför [[http://www.smus.se/earkiv/fmk/browselarge.php?lang=sw&katalogid=%D6g+15&bildnr=00004|SMUS - katalog Ög15 bild 4]]
B: Jämför [[http://www.smus.se/earkiv/fmk/browselarge.php?lang=sw&katalogid=MMD+55&bildnr=00073|SMUS - katalog MMD55 bild 73]] nr 32
B: Jämför [[http://www.smus.se/earkiv/fmk/browselarge.php?lang=sw&katalogid=Ma+17&bildnr=00010|SMUS - katalog Ma17 bild 10]] nr 16
B: Jämför [[http://www.smus.se/earkiv/fmk/browselarge.php?lang=sw&katalogid=Ma+6&bildnr=00096|SMUS - katalog Ma6 bild 96]] efter [[Personer/Petter Dufva]]
B: Jämför [[http://www.samlingarna.sormlandsspel.se/wp-content/uploads/2013/04/ramelius_carl.pdf|Carl Råmelius notbok]] (pdf) nr 16 sid 8
N: Se även [[Musik/1985|+]] och [[http://130.226.229.125/grundtvig/spillemand/seGrafik.cfm?gr_id=Kop%2051~Kp%2051-0094&vNr=Kp%2051-0094&vTitel=Polonoise%20Alternat|Johan Jacob Rebachs notbok]] från Odense, [[Platser/Danmark]] (1750-1780).
% Se även [[http://www.smus.se/earkiv/fmk/browselarge.php?lang=sw&katalogid=MMD+66&bildnr=00101]] nr 75 som tonhöjdsmässigt nästan har ett inverterat tema
O: Sexdrega, Västergötland
R: Slängpolska
S: efter Johannes Bryngelsson
Z: 2008-05-31 av Nils L
D: Skivan "Bäsk" med gruppen [[!Bäsk]] utgiven på Xource/MNW (XOUCD 124), spår 9
M: 3/4
L: 1/16
K: A
e2ae c2c2 c4 | A2cA E2E2 E4 | E2AE A2cA B4 | E2BE B2dB c4 |
e2ag agfe dcBA | cBAG A4 A,4 :: c2cA c2cA cedc | B2BG B2BG BdcB |
A2AF A2AF AcBA | GABG E4 E4 | F2FE F2Ac d4 | E2ED E2AB c4 |
ABAG A2B2 dcBA | cBAG A4 A,4 :|
(:musicend:)

(:music:)
